public/common/form/medium_green_we.svg

<svg width="180" height="114" viewBox="0 0 180 114" fill="none" xmlns="http://www.w3.org/2000/svg">
<g filter="url(#filter0_ii_435_1390)">
<path d="M19.507 94.2576C8.733 94.2576 0 85.5298 0 74.7623L0 19.4953C0 8.72775 8.733 0 19.507 0L160.493 0C171.267 0 180 8.72775 180 19.4953V94.2576L19.507 94.2576Z" fill="#34D186"/>
<path d="M22.4511 21.3003L35.4488 21.3003L46.0923 51.3962L57.5449 21.3003H65.4949L76.7387 51.0571L87.3926 21.3003L100.474 21.3003L81.16 74.1989H72.7454L61.4598 44.0561L49.835 74.1989H41.5144L22.4511 21.3003Z" fill="white"/>
<path d="M161.025 51.5892H118.363C118.979 55.3505 120.623 58.3397 123.301 60.5569C125.973 62.7793 129.387 63.8852 133.542 63.8852C138.507 63.8852 142.766 62.1532 146.336 58.6841L157.523 63.9374C154.735 67.8918 151.395 70.8184 147.5 72.7121C143.606 74.611 138.987 75.5553 133.636 75.5553C125.331 75.5553 118.571 72.9364 113.351 67.7039C108.132 62.4715 105.522 55.9139 105.522 48.0365C105.522 39.9661 108.126 33.2625 113.331 27.9309C118.535 22.5993 125.06 19.9335 132.911 19.9335C141.247 19.9335 148.022 22.5993 153.248 27.9309C158.468 33.2625 161.078 40.3052 161.078 49.0538L161.025 51.5892ZM147.746 41.1399C146.869 38.1924 145.141 35.7926 142.557 33.9459C139.973 32.0991 136.977 31.1757 133.568 31.1757C129.867 31.1757 126.615 32.2139 123.823 34.285C122.069 35.584 120.445 37.8689 118.947 41.1399H147.746Z" fill="white"/>
<path d="M173.115 100.633C174.806 100.633 176.252 101.243 177.463 102.469C178.674 103.69 179.274 105.171 179.274 106.914C179.274 108.63 178.674 110.096 177.479 111.306C176.283 112.516 174.853 113.122 173.188 113.122C171.476 113.122 170.014 112.506 168.803 111.27C167.592 110.033 166.992 108.536 166.992 106.773C166.992 105.077 167.587 103.632 168.787 102.432C169.983 101.232 171.424 100.633 173.115 100.633Z" fill="#34D186"/>
</g>
<defs>
<filter id="filter0_ii_435_1390" x="0" y="0" width="180" height="113.122" filterUnits="userSpaceOnUse" color-interpolation-filters="sRGB">
<feFlood flood-opacity="0" result="BackgroundImageFix"/>
<feBlend mode="normal" in="SourceGraphic" in2="BackgroundImageFix" result="shape"/>
<feColorMatrix in="SourceAlpha" type="matrix" values="0 0 0 0 0 0 0 0 0 0 0 0 0 0 0 0 0 0 127 0" result="hardAlpha"/>
<feOffset/>
<feGaussianBlur stdDeviation="4.5"/>
<feComposite in2="hardAlpha" operator="arithmetic" k2="-1" k3="1"/>
<feColorMatrix type="matrix" values="0 0 0 0 0.0554217 0 0 0 0 0.244578 0 0 0 0 0.154217 0 0 0 0.15 0"/>
<feBlend mode="normal" in2="shape" result="effect1_innerShadow_435_1390"/>
<feColorMatrix in="SourceAlpha" type="matrix" values="0 0 0 0 0 0 0 0 0 0 0 0 0 0 0 0 0 0 127 0" result="hardAlpha"/>
<feOffset/>
<feGaussianBlur stdDeviation="8"/>
<feComposite in2="hardAlpha" operator="arithmetic" k2="-1" k3="1"/>
<feColorMatrix type="matrix" values="0 0 0 0 0.0554217 0 0 0 0 0.244578 0 0 0 0 0.154217 0 0 0 0.1 0"/>
<feBlend mode="normal" in2="effect1_innerShadow_435_1390" result="effect2_innerShadow_435_1390"/>
</filter>
</defs>
</svg>

<svg width="180" height="114" fill="none" xmlns="http://www.w3.org/2000/svg"><g filter="url(#a)"><path d="M19.507 94.258C8.733 94.258 0 85.53 0 74.762V19.495C0 8.728 8.733 0 19.507 0h140.986C171.267 0 180 8.728 180 19.495v74.763H19.507z" fill="#34D186"/><path d="M22.451 21.3H35.45l10.643 30.096L57.545 21.3h7.95l11.244 29.757L87.393 21.3h13.081L81.16 74.2h-8.415L61.46 44.056 49.835 74.2h-8.32L22.45 21.3zM161.025 51.59h-42.662c.616 3.76 2.26 6.75 4.938 8.967 2.672 2.222 6.086 3.328 10.241 3.328 4.965 0 9.224-1.732 12.794-5.2l11.187 5.252c-2.788 3.955-6.128 6.881-10.023 8.775-3.894 1.899-8.513 2.843-13.864 2.843-8.305 0-15.065-2.619-20.285-7.851-5.219-5.232-7.829-11.79-7.829-19.667 0-8.07 2.604-14.774 7.809-20.106 5.204-5.332 11.729-7.998 19.58-7.998 8.336 0 15.111 2.666 20.337 7.998 5.22 5.332 7.83 12.374 7.83 21.123l-.053 2.535zm-13.279-10.45c-.877-2.948-2.605-5.347-5.189-7.194-2.584-1.847-5.58-2.77-8.989-2.77-3.701 0-6.953 1.038-9.745 3.109-1.754 1.299-3.378 3.584-4.876 6.855h28.799z" fill="#fff"/><path d="M173.115 100.633c1.691 0 3.137.61 4.348 1.836 1.211 1.221 1.811 2.702 1.811 4.445 0 1.716-.6 3.182-1.795 4.392-1.196 1.21-2.626 1.816-4.291 1.816-1.712 0-3.174-.616-4.385-1.852-1.211-1.237-1.811-2.734-1.811-4.497 0-1.696.595-3.141 1.795-4.341 1.196-1.2 2.637-1.799 4.328-1.799z" fill="#34D186"/></g><defs><filter id="a" x="0" y="0" width="180" height="113.122" filterUnits="userSpaceOnUse" color-interpolation-filters="sRGB"><feFlood flood-opacity="0" result="BackgroundImageFix"/><feBlend in="SourceGraphic" in2="BackgroundImageFix" result="shape"/><feColorMatrix in="SourceAlpha" values="0 0 0 0 0 0 0 0 0 0 0 0 0 0 0 0 0 0 127 0" result="hardAlpha"/><feOffset/><feGaussianBlur stdDeviation="4.5"/><feComposite in2="hardAlpha" operator="arithmetic" k2="-1" k3="1"/><feColorMatrix values="0 0 0 0 0.0554217 0 0 0 0 0.244578 0 0 0 0 0.154217 0 0 0 0.15 0"/><feBlend in2="shape" result="effect1_innerShadow_435_1390"/><feColorMatrix in="SourceAlpha" values="0 0 0 0 0 0 0 0 0 0 0 0 0 0 0 0 0 0 127 0" result="hardAlpha"/><feOffset/><feGaussianBlur stdDeviation="8"/><feComposite in2="hardAlpha" operator="arithmetic" k2="-1" k3="1"/><feColorMatrix values="0 0 0 0 0.0554217 0 0 0 0 0.244578 0 0 0 0 0.154217 0 0 0 0.1 0"/><feBlend in2="effect1_innerShadow_435_1390" result="effect2_innerShadow_435_1390"/></filter></defs></svg>
